img/svg/partners/logo/logoipsum2.svg

<svg width="102" height="102" viewBox="0 0 102 102" fill="none" xmlns="http://www.w3.org/2000/svg">
<circle cx="51" cy="51" r="51" fill="#252532" fill-opacity="0.8"/>
<circle cx="51" cy="51" r="50.5" stroke="url(#paint0_linear_43_1691)" stroke-opacity="0.3"/>
<g clip-path="url(#clip0_43_1691)">
<path d="M36.6682 54.5051H41.7602V52.9714H38.478V47.1943H36.6682V54.5051Z" fill="#D1D1D1"/>
<path d="M44.777 53.4827C44.051 53.4827 43.6727 52.8488 43.6727 51.8979C43.6727 50.947 44.051 50.3028 44.777 50.3028C45.5029 50.3028 45.8915 50.947 45.8915 51.8979C45.8915 52.8488 45.5029 53.4827 44.777 53.4827ZM44.7872 54.6688C46.4743 54.6688 47.5786 53.4725 47.5786 51.8979C47.5786 50.3233 46.4743 49.127 44.7872 49.127C43.1103 49.127 41.9856 50.3233 41.9856 51.8979C41.9856 53.4725 43.1103 54.6688 44.7872 54.6688Z" fill="#D1D1D1"/>
<path d="M50.4989 56.3155C51.276 56.3155 51.961 56.1417 52.4212 55.7327C52.8404 55.3543 53.1164 54.7818 53.1164 53.9944V49.2706H51.5214V49.8329H51.5009C51.1942 49.3933 50.7238 49.1172 50.0285 49.1172C48.73 49.1172 47.8302 50.201 47.8302 51.7347C47.8302 53.3401 48.9243 54.2194 50.1001 54.2194C50.7341 54.2194 51.1328 53.9638 51.4396 53.6161H51.4805V54.1376C51.4805 54.7715 51.184 55.1396 50.4784 55.1396C49.9263 55.1396 49.6502 54.9045 49.5582 54.6284H47.9427C48.1063 55.7224 49.0572 56.3155 50.4989 56.3155ZM50.4887 52.9822C49.8649 52.9822 49.456 52.4709 49.456 51.6836C49.456 50.8861 49.8649 50.3748 50.4887 50.3748C51.184 50.3748 51.552 50.9679 51.552 51.6734C51.552 52.4096 51.2146 52.9822 50.4887 52.9822Z" fill="#D1D1D1"/>
<path d="M56.3961 53.4827C55.6702 53.4827 55.2918 52.8488 55.2918 51.8979C55.2918 50.947 55.6702 50.3028 56.3961 50.3028C57.1221 50.3028 57.5106 50.947 57.5106 51.8979C57.5106 52.8488 57.1221 53.4827 56.3961 53.4827ZM56.4063 54.6688C58.0934 54.6688 59.1977 53.4725 59.1977 51.8979C59.1977 50.3233 58.0934 49.127 56.4063 49.127C54.7295 49.127 53.6047 50.3233 53.6047 51.8979C53.6047 53.4725 54.7295 54.6688 56.4063 54.6688Z" fill="#D1D1D1"/>
<path d="M59.6843 54.5051H61.351V49.27H59.6843V54.5051ZM59.6843 48.544H61.351V47.1943H59.6843V48.544Z" fill="#D1D1D1"/>
<path d="M62.0743 56.2337H63.741V53.9638H63.7614C64.0886 54.4034 64.5692 54.6693 65.244 54.6693C66.6142 54.6693 67.5242 53.5854 67.5242 51.8881C67.5242 50.3135 66.6755 49.1172 65.2849 49.1172C64.5692 49.1172 64.058 49.4342 63.7001 49.9045H63.6694V49.2706H62.0743V56.2337ZM64.8146 53.381C64.0989 53.381 63.6899 52.7981 63.6899 51.9495C63.6899 51.1008 64.058 50.4566 64.7839 50.4566C65.4997 50.4566 65.8371 51.0497 65.8371 51.9495C65.8371 52.839 65.4485 53.381 64.8146 53.381Z" fill="#D1D1D1"/>
<path d="M70.2376 54.6693C71.6078 54.6693 72.62 54.0762 72.62 52.9311C72.62 51.5916 71.5362 51.3564 70.616 51.2031C69.9513 51.0804 69.3583 51.0292 69.3583 50.6611C69.3583 50.3339 69.6753 50.1806 70.0843 50.1806C70.5444 50.1806 70.8614 50.3237 70.9227 50.7941H72.4564C72.3746 49.7614 71.5771 49.1172 70.0945 49.1172C68.8573 49.1172 67.8348 49.6898 67.8348 50.7941C67.8348 52.021 68.8062 52.2664 69.7162 52.4198C70.4115 52.5425 71.0454 52.5936 71.0454 53.064C71.0454 53.4014 70.7284 53.5854 70.2274 53.5854C69.6753 53.5854 69.3276 53.3298 69.2663 52.8084H67.6917C67.7428 53.9638 68.7039 54.6693 70.2376 54.6693Z" fill="#D1D1D1"/>
<path d="M74.8839 54.659C75.6099 54.659 76.07 54.3727 76.4483 53.8615H76.479V54.5056H78.0741V49.2705H76.4074V52.1948C76.4074 52.8185 76.0598 53.248 75.4872 53.248C74.9555 53.248 74.6999 52.931 74.6999 52.3584V49.2705H73.0435V52.7061C73.0435 53.8717 73.6774 54.659 74.8839 54.659Z" fill="#D1D1D1"/>
<path d="M78.7988 54.5057H80.4655V51.5712C80.4655 50.9474 80.7722 50.5078 81.2937 50.5078C81.7947 50.5078 82.0299 50.835 82.0299 51.3973V54.5057H83.6965V51.5712C83.6965 50.9474 83.9931 50.5078 84.5247 50.5078C85.0258 50.5078 85.2609 50.835 85.2609 51.3973V54.5057H86.9276V51.1008C86.9276 49.925 86.3345 49.1172 85.1485 49.1172C84.4736 49.1172 83.9113 49.4035 83.5023 50.0374H83.4818C83.216 49.4751 82.6945 49.1172 82.0094 49.1172C81.2528 49.1172 80.7518 49.4751 80.4246 50.017H80.3939V49.2706H78.7988V54.5057Z" fill="#D1D1D1"/>
<path fill-rule="evenodd" clip-rule="evenodd" d="M23.8122 42.4102C28.6101 42.4102 32.4996 46.2996 32.4996 51.0976C32.4996 55.8955 28.6101 59.785 23.8122 59.785C19.0142 59.785 15.1248 55.8955 15.1248 51.0976C15.1248 46.2996 19.0142 42.4102 23.8122 42.4102ZM32.1662 51.0976C32.1662 46.4838 28.4259 42.7436 23.8122 42.7436C23.44 42.7436 23.0736 42.7679 22.7143 42.8151C22.9464 42.7948 23.1813 42.7844 23.4187 42.7844C27.8274 42.7844 31.4014 46.3584 31.4014 50.7671C31.4014 55.1757 27.8274 58.7497 23.4187 58.7497C19.2449 58.7497 15.8192 55.5464 15.4661 51.4641C15.6579 55.9078 19.3212 59.4516 23.8122 59.4516C28.4259 59.4516 32.1662 55.7114 32.1662 51.0976ZM31.0679 50.7671C31.0679 46.5425 27.6433 43.1179 23.4187 43.1179C23.0757 43.1179 22.7379 43.1404 22.4069 43.1842C22.6107 43.167 22.817 43.1583 23.0253 43.1583C27.0447 43.1583 30.3031 46.4167 30.3031 50.4361C30.3031 54.4556 27.0447 57.714 23.0253 57.714C19.2248 57.714 16.1046 54.8009 15.776 51.0858C15.9431 55.1625 19.3009 58.4163 23.4187 58.4163C27.6433 58.4163 31.0679 54.9916 31.0679 50.7671ZM23.0253 43.4917C26.8606 43.4917 29.9697 46.6008 29.9697 50.4361C29.9697 54.2714 26.8606 57.3806 23.0253 57.3806C19.2788 57.3806 16.2253 54.4138 16.0858 50.7015C16.3869 54.0522 19.2027 56.6783 22.6319 56.6783C26.2618 56.6783 29.2045 53.7356 29.2045 50.1056C29.2045 46.4756 26.2618 43.533 22.6319 43.533C22.4441 43.533 22.2581 43.5408 22.0743 43.5563C22.3852 43.5137 22.7027 43.4917 23.0253 43.4917ZM28.8711 50.1056C28.8711 46.6598 26.0777 43.8664 22.6319 43.8664C22.3407 43.8664 22.0542 43.8863 21.7737 43.9249C21.9269 43.9129 22.0817 43.9068 22.238 43.9068C25.4787 43.9068 28.1059 46.534 28.1059 49.7747C28.1059 53.0154 25.4787 55.6426 22.238 55.6426C19.1877 55.6426 16.681 53.3152 16.3969 50.3394C16.5198 53.6769 19.2643 56.3449 22.6319 56.3449C26.0777 56.3449 28.8711 53.5515 28.8711 50.1056ZM22.238 44.2403C25.2945 44.2403 27.7724 46.7181 27.7724 49.7747C27.7724 52.8313 25.2945 55.3092 22.238 55.3092C19.2416 55.3092 16.8014 52.928 16.7064 49.9547C16.9629 52.5664 19.1654 54.6069 21.8445 54.6069C24.696 54.6069 27.0076 52.2953 27.0076 49.4438C27.0076 46.5923 24.696 44.2807 21.8445 44.2807C21.7138 44.2807 21.5841 44.2855 21.4558 44.2951C21.7113 44.2589 21.9724 44.2403 22.238 44.2403ZM26.6742 49.4438C26.6742 46.7764 24.5119 44.6141 21.8445 44.6141C21.601 44.6141 21.3618 44.6321 21.128 44.6669C21.2347 44.6593 21.3424 44.6554 21.4511 44.6554C23.9131 44.6554 25.909 46.6512 25.909 49.1133C25.909 51.5753 23.9131 53.5712 21.4511 53.5712C19.144 53.5712 17.2463 51.8187 17.0165 49.5723C17.0846 52.1802 19.2201 54.2735 21.8445 54.2735C24.5119 54.2735 26.6742 52.1111 26.6742 49.4438ZM21.4511 44.9888C23.729 44.9888 25.5756 46.8354 25.5756 49.1133C25.5756 51.3912 23.729 53.2378 21.4511 53.2378C19.2022 53.2378 17.3737 51.4379 17.3275 49.2C17.5352 51.0763 19.126 52.5355 21.0577 52.5355C23.1305 52.5355 24.8108 50.8551 24.8108 48.7824C24.8108 46.7096 23.1305 45.0292 21.0577 45.0292C20.9784 45.0292 20.8997 45.0317 20.8216 45.0365C21.0269 45.0051 21.2371 44.9888 21.4511 44.9888ZM24.4774 48.7824C24.4774 46.8937 22.9463 45.3626 21.0577 45.3626C20.868 45.3626 20.6819 45.3781 20.5007 45.4078C20.5547 45.4049 20.609 45.4035 20.6638 45.4035C22.3473 45.4035 23.7121 46.7683 23.7121 48.4518C23.7121 50.1354 22.3473 51.5002 20.6638 51.5002C19.1071 51.5002 17.8229 50.3333 17.6382 48.8265C17.6619 50.6948 19.1837 52.2021 21.0577 52.2021C22.9463 52.2021 24.4774 50.671 24.4774 48.7824ZM20.6638 45.7369C22.1632 45.7369 23.3787 46.9524 23.3787 48.4518C23.3787 49.9513 22.1632 51.1667 20.6638 51.1667C19.1644 51.1667 17.9489 49.9513 17.9489 48.4518C17.9489 48.4483 17.9489 48.4446 17.9489 48.4411C18.105 49.5837 19.0848 50.4641 20.2704 50.4641C21.5644 50.4641 22.6135 49.415 22.6135 48.1209C22.6135 46.8268 21.5644 45.7778 20.2704 45.7778C20.2411 45.7778 20.2119 45.7783 20.1829 45.7794C20.339 45.7515 20.4997 45.7369 20.6638 45.7369ZM22.28 48.1209C22.28 47.011 21.3803 46.1112 20.2704 46.1112C19.1604 46.1112 18.2606 47.011 18.2606 48.1209C18.2606 49.2308 19.1604 50.1306 20.2704 50.1306C21.3803 50.1306 22.28 49.2308 22.28 48.1209Z" fill="#D1D1D1"/>
</g>
<defs>
<linearGradient id="paint0_linear_43_1691" x1="-1.07003e-06" y1="-3.68497" x2="110.285" y2="5.81496" gradientUnits="userSpaceOnUse">
<stop offset="0" stop-color="white"/>
<stop offset="1" stop-color="white" stop-opacity="0"/>
</linearGradient>
<clipPath id="clip0_43_1691">
<rect width="72" height="17.8935" fill="white" transform="translate(15 42)"/>
</clipPath>
</defs>
</svg>

<svg width="102" height="102" fill="none" xmlns="http://www.w3.org/2000/svg"><circle cx="51" cy="51" r="51" fill="#252532" fill-opacity=".8"/><circle cx="51" cy="51" r="50.5" stroke="url(#a)" stroke-opacity=".3"/><g clip-path="url(#b)" fill="#D1D1D1"><path d="M36.668 54.505h5.092v-1.534h-3.282v-5.777h-1.81v7.311ZM44.777 53.483c-.726 0-1.104-.634-1.104-1.585s.378-1.595 1.104-1.595c.726 0 1.114.644 1.114 1.595 0 .95-.388 1.585-1.114 1.585Zm.01 1.186c1.687 0 2.792-1.197 2.792-2.771 0-1.575-1.105-2.771-2.792-2.771-1.677 0-2.801 1.196-2.801 2.77 0 1.575 1.124 2.772 2.801 2.772ZM50.499 56.316c.777 0 1.462-.174 1.922-.583.42-.379.695-.951.695-1.739v-4.723h-1.595v.562h-.02c-.307-.44-.777-.716-1.472-.716-1.299 0-2.199 1.084-2.199 2.618 0 1.605 1.094 2.484 2.27 2.484a1.67 1.67 0 0 0 1.34-.603h.04v.522c0 .634-.296 1.002-1.002 1.002-.552 0-.828-.236-.92-.512h-1.615c.163 1.094 1.114 1.688 2.556 1.688Zm-.01-3.334c-.624 0-1.033-.511-1.033-1.298 0-.798.409-1.31 1.033-1.31.695 0 1.063.594 1.063 1.3 0 .736-.337 1.308-1.063 1.308ZM56.396 53.483c-.726 0-1.104-.634-1.104-1.585s.378-1.595 1.104-1.595c.726 0 1.115.644 1.115 1.595 0 .95-.389 1.585-1.115 1.585Zm.01 1.186c1.687 0 2.792-1.197 2.792-2.771 0-1.575-1.105-2.771-2.792-2.771-1.676 0-2.801 1.196-2.801 2.77 0 1.575 1.125 2.772 2.801 2.772ZM59.684 54.505h1.667V49.27h-1.667v5.235Zm0-5.961h1.667v-1.35h-1.667v1.35ZM62.074 56.234h1.667v-2.27h.02c.328.44.808.705 1.483.705 1.37 0 2.28-1.084 2.28-2.78 0-1.576-.849-2.772-2.24-2.772-.715 0-1.226.317-1.584.788h-.03v-.634h-1.596v6.963Zm2.74-2.853c-.715 0-1.124-.583-1.124-1.431 0-.85.368-1.493 1.094-1.493.716 0 1.053.593 1.053 1.492 0 .89-.389 1.432-1.022 1.432ZM70.238 54.67c1.37 0 2.382-.594 2.382-1.739 0-1.34-1.084-1.575-2.004-1.728-.665-.123-1.258-.174-1.258-.542 0-.327.317-.48.726-.48.46 0 .777.143.839.613h1.533c-.081-1.033-.879-1.677-2.362-1.677-1.237 0-2.26.573-2.26 1.677 0 1.227.972 1.472 1.882 1.626.696.122 1.33.174 1.33.644 0 .337-.318.521-.819.521-.552 0-.9-.255-.96-.777h-1.575c.05 1.156 1.012 1.861 2.546 1.861ZM74.884 54.659c.726 0 1.186-.286 1.564-.797h.031v.644h1.595V49.27h-1.667v2.925c0 .623-.347 1.053-.92 1.053-.531 0-.787-.317-.787-.89v-3.087h-1.657v3.435c0 1.166.634 1.953 1.84 1.953ZM78.799 54.506h1.666V51.57c0-.624.307-1.063.829-1.063.5 0 .736.327.736.89v3.108h1.666V51.57c0-.624.297-1.063.829-1.063.5 0 .736.327.736.89v3.108h1.667V51.1c0-1.176-.593-1.984-1.78-1.984-.674 0-1.237.287-1.646.92h-.02c-.266-.562-.787-.92-1.473-.92-.756 0-1.257.358-1.584.9h-.031v-.746h-1.595v5.235Z"/><path fill-rule="evenodd" clip-rule="evenodd" d="M23.812 42.41a8.687 8.687 0 1 1 0 17.375 8.687 8.687 0 0 1 0-17.375Zm8.354 8.688a8.354 8.354 0 0 0-9.452-8.283 7.983 7.983 0 1 1-7.248 8.649 8.354 8.354 0 0 0 16.7-.366Zm-1.098-.33a7.65 7.65 0 0 0-8.661-7.584 7.278 7.278 0 1 1-6.63 7.902 7.65 7.65 0 0 0 15.29-.319Zm-8.043-7.276a6.944 6.944 0 1 1-6.94 7.21 6.573 6.573 0 1 0 5.99-7.146c.31-.042.628-.064.95-.064Zm5.846 6.614a6.24 6.24 0 0 0-7.097-6.181 5.868 5.868 0 1 1-5.377 6.414 6.24 6.24 0 0 0 12.474-.233Zm-6.633-5.866a5.534 5.534 0 1 1-5.532 5.715 5.164 5.164 0 1 0 4.75-5.66c.255-.036.516-.055.782-.055Zm4.436 5.204a4.83 4.83 0 0 0-5.546-4.777 4.458 4.458 0 1 1-4.111 4.905 4.83 4.83 0 0 0 9.657-.128Zm-5.223-4.455a4.124 4.124 0 1 1-4.123 4.211 3.754 3.754 0 1 0 3.494-4.164c.205-.03.415-.047.63-.047Zm3.026 3.793a3.42 3.42 0 0 0-3.976-3.374 3.048 3.048 0 1 1-2.862 3.419 3.42 3.42 0 0 0 6.838-.045Zm-3.813-3.045a2.715 2.715 0 1 1-2.715 2.715v-.01a2.344 2.344 0 1 0 2.234-2.663c.156-.028.317-.042.48-.042Zm1.616 2.384a2.01 2.01 0 1 0-4.02 0 2.01 2.01 0 0 0 4.02 0Z"/></g><defs><linearGradient id="a" x1="0" y1="-3.685" x2="110.285" y2="5.815" gradientUnits="userSpaceOnUse"><stop offset="0" stop-color="#fff"/><stop offset="1" stop-color="#fff" stop-opacity="0"/></linearGradient><clipPath id="b"><path fill="#fff" transform="translate(15 42)" d="M0 0h72v17.893H0z"/></clipPath></defs></svg>
